X:1
T:Title
%%score [ ( 1 2 ) ( 3 4 ) ] { ( 5 6 ) | ( 7 8 ) }
L:1/8
Q:1/4=120
M:4/4
K:A
V:1 treble nm="Midi_74"
V:2 treble 
V:3 bass nm="Midi_74"
V:4 bass 
V:5 treble nm="Org."
V:6 treble 
V:7 bass 
V:8 bass 
V:1
 c8 | (B2 A2) (G2 F2) |{F} E8 || A8 | e4 e4 | (e2 d2) (c2 B2) | (A4 G4) || B8 | (A2 G2) (F2 E2) | %9
{E} ^D8 || E8 | A4 A4 |"^William Henry Havergal\n(1793-1870)" (B2 A2) G4 | A8 |] %14
V:2
 A8 | (G2 F2) (E2 D2) |{D} C8 || E8 | (E2 F2) (G2 F2) | E4 (E2 D2) | (C4 B,4) || E8 | E4 C4 | %9
 B,8 || E8 | (F2 G2) (F2 E2) | D4 (E2 D2) | C8 |] %14
V:3
 A,8 | A,4 A,4 | A,8 || C8 | (B,2 A,2) G,4 | A,4 (A,2 B,2) | E,8 || E,8 | E,4 F,4 | F,8 || B,8 | %11
 A,4 A,4 | D4 B,4 | A,8 |] %14
V:4
 A,,8 | A,,4 A,,4 | A,,8 || A,8 | (G,2 F,2) (E,2 D,2) | C,4 D,4 | E,8 || G,,8 | A,,4 ^A,,4 | %9
 B,,8 || G,8 | (F,2 E,2) (D,2 C,2) | B,,4 E,4 | A,,8 |] %14
V:5
 [Ec]8 | B2 A2 G2 F2 |{F} E8 || [CA]8 | [Ee]4 e4 | e2 d2 c2 B2 | A4 G4 || [B,B]8 | A2 G2 F2 E2 | %9
{E} ^D8 || E8 | A4 A4 | B2 A2 G4 | A8 |] %14
V:6
 A8 | G2 F2 E2 D2 |{D} C8 || E8 | B2 A2 G2 F2 | E4 E2 D2 | C4 B,4 || E8 | C4 C4 | B,8 || [B,E]8 | %11
 F2 G2 F2 E2 | D4 E2 D2 | C8 |] %14
V:7
 x8 | x8 | x8 || x8 | x8 | x8 | x8 || x8 | x8 | x8 || x8 | x8 | x4 B,4 | A,8 |] %14
V:8
 [A,,A,]8 | [A,,A,]4 [A,,A,]4 | [A,,A,]8 || A,8 | G,2 F,2 E,2 D,2 | C,4 D,4 | E,8 || G,,8 | %8
 A,,4 ^A,,4 | B,,8 || G,8 | F,2 E,2 D,2 C,2 | B,,4 E,4 | A,,8 |] %14

